src/assets/dark/IconRulingInactive.svg

<svg width="44" height="44" viewBox="0 0 44 44" fill="none" xmlns="http://www.w3.org/2000/svg">
<path fill-rule="evenodd" clip-rule="evenodd" d="M21.9683 43.5C33.8424 43.5 43.4683 33.8741 43.4683 22C43.4683 10.1259 33.8424 0.5 21.9683 0.5C10.0941 0.5 0.468262 10.1259 0.468262 22C0.468262 33.8741 10.0941 43.5 21.9683 43.5Z" fill="url(#paint0_linear)"/>
<path fill-rule="evenodd" clip-rule="evenodd" d="M21.9683 43.5C33.8424 43.5 43.4683 33.8741 43.4683 22C43.4683 10.1259 33.8424 0.5 21.9683 0.5C10.0941 0.5 0.468262 10.1259 0.468262 22C0.468262 33.8741 10.0941 43.5 21.9683 43.5Z" fill="url(#paint1_linear)"/>
<path d="M10.0269 10.8189L13.7629 12.3813C13.8186 12.4042 13.8815 12.3797 13.9084 12.3279L15.7611 8.72637C15.8112 8.6348 15.9458 8.6488 15.9669 8.74732L17.0744 12.6411C17.0909 12.6962 17.1468 12.735 17.2059 12.7224L21.175 11.9221C21.2735 11.9011 21.3501 12.0146 21.2919 12.0984L18.9372 15.3906C18.9062 15.4384 18.911 15.5055 18.955 15.5405L22.0528 18.1429C22.1288 18.2091 22.091 18.336 21.9844 18.3414L17.9402 18.5538C17.881 18.5585 17.8342 18.6066 17.8349 18.6619L17.7312 22.7103C17.7286 22.8092 17.6028 22.8583 17.5346 22.7841L14.85 19.7572C14.8098 19.7103 14.7426 19.7073 14.6996 19.7434L11.4718 22.1857C11.3897 22.2461 11.2742 22.1804 11.2925 22.0735L11.9859 18.0844C11.997 18.0249 11.9567 17.9701 11.9012 17.9551L7.97905 16.9525C7.87989 16.9262 7.86228 16.792 7.95258 16.7473L11.5031 14.7987C11.5541 14.7703 11.577 14.7068 11.5525 14.6518L9.89049 10.9591C9.834 10.8729 9.92757 10.7768 10.0269 10.8189Z" fill="white" fill-opacity="0.67"/>
<path d="M21.9619 22.0132L24.7125 22.9037L27.0154 21.1428L27.0162 24.0333L29.3973 25.6771L26.6435 26.5709L25.8239 29.3476L24.1222 27.006L21.2327 27.0828L22.9258 24.739L21.9619 22.0132Z" fill="white" fill-opacity="0.67"/>
<path d="M33.646 32.9033C34.3362 32.1943 34.321 31.06 33.612 30.3697C32.9029 29.6795 31.7686 29.6947 31.0784 30.4037C30.3882 31.1127 30.4034 32.247 31.1124 32.9373C31.8214 33.6275 32.9557 33.6123 33.646 32.9033Z" fill="white" fill-opacity="0.67"/>
<defs>
<linearGradient id="paint0_linear" x1="13.8026" y1="60.9102" x2="55.9764" y2="27.5927" gradientUnits="userSpaceOnUse">
<stop stop-color="#FFB36D"/>
<stop offset="1" stop-color="#FF8888"/>
</linearGradient>
<linearGradient id="paint1_linear" x1="0.468263" y1="9.17608" x2="45.3146" y2="40.906" gradientUnits="userSpaceOnUse">
<stop stop-color="#3B3381"/>
<stop offset="1" stop-color="#322773"/>
</linearGradient>
</defs>
</svg>

<svg width="44" height="44" fill="none" xmlns="http://www.w3.org/2000/svg"><path fill-rule="evenodd" clip-rule="evenodd" d="M21.968 43.5c11.874 0 21.5-9.626 21.5-21.5S33.842.5 21.968.5.468 10.126.468 22s9.626 21.5 21.5 21.5z" fill="url(#paint0_linear)"/><path fill-rule="evenodd" clip-rule="evenodd" d="M21.968 43.5c11.874 0 21.5-9.626 21.5-21.5S33.842.5 21.968.5.468 10.126.468 22s9.626 21.5 21.5 21.5z" fill="url(#paint1_linear)"/><path d="M10.027 10.819l3.736 1.562a.115.115 0 00.145-.053l1.853-3.602c.05-.091.185-.077.206.021l1.107 3.894a.115.115 0 00.132.081l3.969-.8c.098-.02.175.093.117.176l-2.355 3.293c-.03.047-.026.114.018.15l3.098 2.602a.112.112 0 01-.069.198l-4.044.213c-.059.005-.106.053-.105.108l-.104 4.048c-.002.1-.128.148-.196.074l-2.685-3.027a.107.107 0 00-.15-.014l-3.228 2.443a.113.113 0 01-.18-.113l.694-3.989a.114.114 0 00-.085-.129L7.98 16.953c-.1-.027-.117-.161-.026-.206l3.55-1.948a.115.115 0 00.05-.147L9.89 10.959c-.056-.086.038-.182.137-.14zM21.962 22.013l2.75.89 2.303-1.76.001 2.89 2.381 1.644-2.753.894-.82 2.777-1.702-2.342-2.89.077 1.694-2.344-.964-2.726zM33.646 32.903a1.792 1.792 0 10-2.568-2.5 1.792 1.792 0 002.568 2.5z" fill="#fff" fill-opacity=".67"/><defs><linearGradient id="paint0_linear" x1="13.803" y1="60.91" x2="55.976" y2="27.593" gradientUnits="userSpaceOnUse"><stop stop-color="#FFB36D"/><stop offset="1" stop-color="#F88"/></linearGradient><linearGradient id="paint1_linear" x1=".468" y1="9.176" x2="45.315" y2="40.906" gradientUnits="userSpaceOnUse"><stop stop-color="#3B3381"/><stop offset="1" stop-color="#322773"/></linearGradient></defs></svg>
